svg/Filled/scan_filled.svg

<svg viewBox="0 0 24 24" xmlns="http://www.w3.org/2000/svg" width="24" height="24"><g clip-path="url(#a)"><path d="M21.81 14.7c.66 0 1.2.53 1.2 1.2v.64c0 .6-.02 1.05-.09 1.45l-.04.23a6.05 6.05 0 0 1-4.9 4.7l-.2.04c-.49.06-1.07.05-1.88.05a1.2 1.2 0 0 1 0-2.4c.77 0 1.17 0 1.44-.02l.24-.03a3.7 3.7 0 0 0 2.92-2.7l.06-.28q.03-.19.04-.56l.01-1.13v-.12a1.2 1.2 0 0 1 1.2-1.08m-19.61 0c.66 0 1.2.54 1.2 1.2 0 .77 0 1.17.02 1.44l.03.24a3.7 3.7 0 0 0 2.7 2.92l.28.06.56.04h1.13l.12.02A1.2 1.2 0 0 1 8.12 23h-.65c-.6 0-1.04-.02-1.45-.09l-.23-.05a6.05 6.05 0 0 1-4.7-4.89l-.03-.2C1 17.28 1 16.7 1 15.9c0-.66.54-1.2 1.2-1.2M8.1 1a1.2 1.2 0 0 1 0 2.4c-.77 0-1.17 0-1.44.02l-.23.03a3.7 3.7 0 0 0-2.92 2.7l-.06.28q-.04.19-.05.56v1.13l-.01.12A1.2 1.2 0 0 1 1 8.12v-.65c0-.6.02-1.05.1-1.45l.04-.23a6.05 6.05 0 0 1 4.89-4.7l.2-.04C6.73 1 7.3 1 8.11 1m8.43 0c.6 0 1.05.02 1.45.1l.24.04a6.05 6.05 0 0 1 4.7 4.89l.03.2c.06.5.06 1.07.06 1.88a1.2 1.2 0 0 1-2.4 0c0-.77 0-1.17-.03-1.44l-.03-.24a3.7 3.7 0 0 0-2.7-2.91l-.28-.06q-.19-.04-.56-.05H15.9l-.13-.01A1.2 1.2 0 0 1 15.9 1z"/></g><defs><clipPath id="a"><path d="M0 0h24v24H0z"/></clipPath></defs></svg>

<svg viewBox="0 0 24 24" xmlns="http://www.w3.org/2000/svg" width="24" height="24"><g clip-path="url(#a)"><path d="M21.81 14.7C22.47 14.7 23.01 15.23 23.01 15.9L23.01 16.54C23.01 17.14 22.99 17.59 22.92 17.99L22.88 18.22A6.05 6.05 0 0 1 17.98 22.92L17.78 22.96C17.29 23.02 16.71 23.01 15.9 23.01A1.2 1.2 0 0 1 15.9 20.61C16.67 20.61 17.07 20.61 17.34 20.59L17.58 20.56A3.7 3.7 0 0 0 20.5 17.86L20.56 17.58Q20.59 17.39 20.6 17.02L20.61 15.77A1.2 1.2 0 0 1 21.81 14.69M2.2 14.69C2.86 14.69 3.4 15.23 3.4 15.89C3.4 16.66 3.4 17.06 3.42 17.33L3.45 17.57A3.7 3.7 0 0 0 6.15 20.49L6.43 20.55L6.99 20.59L8.24 20.61A1.2 1.2 0 0 1 8.12 23L7.47 23C6.87 23 6.43 22.98 6.02 22.91L5.79 22.86A6.05 6.05 0 0 1 1.09 17.97L1.06 17.77C1 17.28 1 16.7 1 15.9C1 15.24 1.54 14.7 2.2 14.7M8.1 1A1.2 1.2 0 0 1 8.1 3.4C7.33 3.4 6.93 3.4 6.66 3.42L6.43 3.45A3.7 3.7 0 0 0 3.51 6.15L3.45 6.43Q3.41 6.62 3.4 6.99L3.39 8.24A1.2 1.2 0 0 1 1 8.12L1 7.47C1 6.87 1.02 6.42 1.1 6.02L1.14 5.79A6.05 6.05 0 0 1 6.03 1.09L6.23 1.05C6.73 1 7.3 1 8.11 1M16.54 1C17.14 1 17.59 1.02 17.99 1.1L18.23 1.14A6.05 6.05 0 0 1 22.93 6.03L22.96 6.23C23.02 6.73 23.02 7.3 23.02 8.11A1.2 1.2 0 0 1 20.62 8.11C20.62 7.34 20.62 6.94 20.59 6.67L20.56 6.43A3.7 3.7 0 0 0 17.86 3.52L17.58 3.46Q17.39 3.42 17.02 3.41L15.77 3.4A1.2 1.2 0 0 1 15.9 1Z"/></g><defs><clipPath id="a"><path d="M0 0h24v24H0z"/></clipPath></defs></svg>
